assets/layers/entrance/emergency_door.svg

<?xml version="1.0" encoding="UTF-8" standalone="no"?>
<!-- Created with Inkscape (http://www.inkscape.org/) -->

<svg
   xmlns:dc="http://purl.org/dc/elements/1.1/"
   xmlns:cc="http://creativecommons.org/ns#"
   xmlns:rdf="http://www.w3.org/1999/02/22-rdf-syntax-ns#"
   xmlns:svg="http://www.w3.org/2000/svg"
   xmlns="http://www.w3.org/2000/svg"
   xmlns:sodipodi="http://sodipodi.sourceforge.net/DTD/sodipodi-0.dtd"
   xmlns:inkscape="http://www.inkscape.org/namespaces/inkscape"
   width="32mm"
   height="32mm"
   viewBox="0 0 113.38583 113.38583"
   id="svg2"
   version="1.1"
   inkscape:version="0.91 r13725"
   sodipodi:docname="emergency_door.svg"
   inkscape:export-filename="/home/adrien/Documents/Programmation/Web/panieravide.github.io/levelup/img/door.png"
   inkscape:export-xdpi="25.4"
   inkscape:export-ydpi="25.4">
  <defs
     id="defs4" />
  <sodipodi:namedview
     id="base"
     pagecolor="#ffffff"
     bordercolor="#666666"
     borderopacity="1.0"
     inkscape:pageopacity="0.0"
     inkscape:pageshadow="2"
     inkscape:zoom="3.959798"
     inkscape:cx="17.362557"
     inkscape:cy="53.453701"
     inkscape:document-units="px"
     inkscape:current-layer="layer1"
     showgrid="false"
     inkscape:window-width="1600"
     inkscape:window-height="843"
     inkscape:window-x="1920"
     inkscape:window-y="568"
     inkscape:window-maximized="1"
     showguides="false" />
  <metadata
     id="metadata7">
    <rdf:RDF>
      <cc:Work
         rdf:about="">
        <dc:format>image/svg+xml</dc:format>
        <dc:type
           rdf:resource="http://purl.org/dc/dcmitype/StillImage" />
        <dc:title />
      </cc:Work>
    </rdf:RDF>
  </metadata>
  <g
     inkscape:label="Calque 1"
     inkscape:groupmode="layer"
     id="layer1"
     transform="translate(0,-938.97638)">
    <path
       style="fill:none;fill-rule:evenodd;stroke:#000000;stroke-width:2.00000024;stroke-linecap:butt;stroke-linejoin:miter;stroke-miterlimit:4;stroke-dasharray:none;stroke-opacity:1"
       d="m 0,1031.3622 114.00001,0"
       id="path4138"
       inkscape:connector-curvature="0"
       sodipodi:nodetypes="cc" />
    <rect
       style="opacity:1;fill:#e2e2e2;fill-opacity:1;fill-rule:nonzero;stroke:#000000;stroke-width:2.00000024;stroke-linecap:square;stroke-linejoin:miter;stroke-miterlimit:4;stroke-dasharray:none;stroke-opacity:1"
       id="rect4136-8"
       width="60.000004"
       height="80.000008"
       x="34.500004"
       y="951.36212" />
    <g
       id="g4150"
       transform="matrix(1.0676647,0,0,1.0676647,3.6639253,-75.770373)"
       style="stroke:#ffffff;stroke-opacity:1;stroke-width:0.9366237;stroke-miterlimit:4;stroke-dasharray:none;fill:#019501;fill-opacity:1">
      <path
         sodipodi:nodetypes="acccccccccccsscccsccscccccccccccccccaa"
         id="path4142"
         d="m 68.306561,997.51621 c -0.860179,-1.02295 -3.90737,-0.8997 -3.90737,-0.8997 l -4.107632,0 -2.888536,-3.32659 c -1.587556,-1.82228 -3.816505,-4.2996 -4.944625,-5.51551 l -2.06064,-2.21759 -10.080305,-0.14192 c -8.582362,-0.12828 -10.357334,-0.0368 -11.812973,0.65368 -2.9186,1.80372 -3.923351,4.81999 -5.429991,7.37782 -2.844868,4.81179 -2.827582,6.35841 0.07096,7.2782 3.773223,-0.5747 4.728773,-4.42983 6.354323,-7.12172 l 1.748132,-2.88581 3.156009,0 c 1.895061,0 3.170111,0.21335 3.170111,0.52585 0,0.51903 -3.344333,7.89048 -4.691254,10.35048 -0.434873,0.7915 -0.928426,4.1168 -1.265042,8.5838 -0.302501,4.0121 -0.62911,7.5829 -0.725091,7.9196 -0.130553,0.4594 -2.172087,0.6095 -8.088354,0.6095 -10.00024,0 -11.499088,0.5914 -12.765035,5.0038 l -0.3984807,1.3783 13.2062767,0 c 12.6486,0 13.252235,-0.036 14.144269,-0.9962 0.786502,-0.8416 0.982558,-2.1107 1.279145,-8.2153 0.325699,-6.6959 0.596812,-8.47 1.109016,-7.2327 0.111902,0.2684 3.009536,6.0091 6.437568,12.7505 3.998459,7.8513 6.691392,12.5822 7.491993,13.1599 0.982557,0.705 1.969663,0.8688 4.52158,0.7551 l 3.256995,-0.1547 -6.327484,-12.7505 c -3.479886,-7.0189 -6.800563,-13.7785 -7.37827,-15.0112 l -1.05079,-2.2472 2.315376,-5.0042 c 1.278234,-2.75118 2.451844,-4.98513 2.615603,-4.96147 0.163759,0.0246 1.646691,1.61985 3.284286,3.55403 l 2.984061,3.52314 5.49049,0.1455 c 0,0 4.349574,0.3122 5.48594,-1.1729 0.753414,-0.9846 0.597657,-2.76508 -0.200261,-3.71399 z"
         style="fill:#019501;stroke:#ffffff;stroke-opacity:1;stroke-width:0.9366237;stroke-miterlimit:4;stroke-dasharray:none;fill-opacity:1"
         inkscape:connector-curvature="0" />
      <circle
         r="5.9375"
         cy="977.94257"
         cx="49.653049"
         id="path4148"
         style="opacity:1;fill:#019501;fill-opacity:1;fill-rule:nonzero;stroke:#ffffff;stroke-width:0.9366237;stroke-linecap:square;stroke-linejoin:round;stroke-miterlimit:4;stroke-dasharray:none;stroke-opacity:1" />
    </g>
  </g>
</svg>

<?xml version="1.0" encoding="UTF-8" standalone="yes"?>
<svg xmlns="http://www.w3.org/2000/svg" xmlns:xlink="http://www.w3.org/1999/xlink" width="375px" height="375px" viewBox="0 0 375 375" version="1.1">
  <g id="surface1">
    <path style="fill:none;stroke-width:2;stroke-linecap:butt;stroke-linejoin:miter;stroke:rgb(0%,0%,0%);stroke-opacity:1;stroke-miterlimit:4;" d="M 0 1031.362212 L 114.000007 1031.362212 " transform="matrix(3.307291,0,0,3.307291,0,-3105.468564)"/>
    <path style="fill-rule:nonzero;fill:rgb(88.627452%,88.627452%,88.627452%);fill-opacity:1;stroke-width:2;stroke-linecap:square;stroke-linejoin:miter;stroke:rgb(0%,0%,0%);stroke-opacity:1;stroke-miterlimit:4;" d="M 34.500002 951.362601 L 94.500006 951.362601 L 94.500006 1031.362212 L 34.500002 1031.362212 Z M 34.500002 951.362601 " transform="matrix(3.307291,0,0,3.307291,0,-3105.468564)"/>
    <path style="fill-rule:nonzero;fill:rgb(0.392157%,58.431375%,0.392157%);fill-opacity:1;stroke-width:0.936624;stroke-linecap:butt;stroke-linejoin:miter;stroke:rgb(100%,100%,100%);stroke-opacity:1;stroke-miterlimit:4;" d="M 68.306279 997.516586 C 67.446724 996.493306 64.399009 996.616099 64.399009 996.616099 L 60.291509 996.616099 L 57.403094 993.28961 C 55.815628 991.467619 53.586537 988.990729 52.458164 987.774962 L 50.397223 985.556934 L 40.317087 985.415334 C 31.734812 985.287009 29.96039 985.377722 28.504567 986.069127 C 25.586283 987.872312 24.580703 990.889051 23.073993 993.446698 C 20.229828 998.257772 20.246422 999.804307 23.145899 1000.724706 C 26.918206 1000.149457 27.874005 996.295287 29.50019 993.602679 L 31.248063 990.717583 L 34.404189 990.717583 C 36.299193 990.717583 37.573591 990.929982 37.573591 991.243051 C 37.573591 991.761881 34.229402 999.133921 32.883098 1001.593111 C 32.448342 1002.385185 31.953849 1005.710568 31.61755 1010.177599 C 31.315544 1014.188855 30.988094 1017.759825 30.892957 1018.097231 C 30.76242 1018.556324 28.720285 1018.706774 22.804069 1018.706774 C 12.803583 1018.706774 11.305722 1019.297511 10.039068 1023.710336 L 9.640819 1025.088721 L 22.847212 1025.088721 C 35.496057 1025.088721 36.098962 1025.052215 36.991705 1024.091991 C 37.778247 1023.250136 37.974053 1021.981269 38.270528 1015.876991 C 38.595765 1009.180869 38.866796 1007.406446 39.378989 1008.644338 C 39.491826 1008.912051 42.389091 1014.65348 45.817354 1021.394958 C 49.815336 1029.246003 52.507945 1033.977427 53.308869 1034.554889 C 54.291217 1035.259569 55.279097 1035.423294 57.830106 1035.30935 L 61.088008 1035.154476 L 54.760267 1022.404962 C 51.280009 1015.385816 47.959051 1008.625532 47.38159 1007.393171 L 46.330654 1005.146381 L 48.646032 1000.141713 C 49.924855 997.390473 51.098584 995.156958 51.262309 995.180189 C 51.426034 995.204526 52.908407 996.799737 54.546761 998.734565 L 57.530313 1002.257966 L 63.020624 1002.402885 C 63.020624 1002.402885 67.370392 1002.714847 68.50651 1001.230261 C 69.259865 1000.2457 69.10499 998.46464 68.306279 997.516586 Z M 68.306279 997.516586 " transform="matrix(3.531078,0,0,3.531078,12.117669,-3356.063263)"/>
    <path style="fill-rule:nonzero;fill:rgb(0.392157%,58.431375%,0.392157%);fill-opacity:1;stroke-width:0.936624;stroke-linecap:square;stroke-linejoin:round;stroke:rgb(100%,100%,100%);stroke-opacity:1;stroke-miterlimit:4;" d="M 55.591059 977.942626 C 55.591059 981.221546 52.932744 983.879861 49.652718 983.879861 C 46.373797 983.879861 43.715482 981.221546 43.715482 977.942626 C 43.715482 974.663706 46.373797 972.005391 49.652718 972.005391 C 52.932744 972.005391 55.591059 974.663706 55.591059 977.942626 Z M 55.591059 977.942626 " transform="matrix(3.531078,0,0,3.531078,12.117669,-3356.063263)"/>
  </g>
</svg>
